actions/symbolic/action-unavailable-symbolic.svg

<?xml version="1.0" encoding="UTF-8" standalone="no"?>
<svg
   xmlns:dc="http://purl.org/dc/elements/1.1/"
   xmlns:cc="http://creativecommons.org/ns#"
   xmlns:rdf="http://www.w3.org/1999/02/22-rdf-syntax-ns#"
   xmlns:svg="http://www.w3.org/2000/svg"
   xmlns="http://www.w3.org/2000/svg"
   xmlns:sodipodi="http://sodipodi.sourceforge.net/DTD/sodipodi-0.dtd"
   xmlns:inkscape="http://www.inkscape.org/namespaces/inkscape"
   viewBox="0 0 16 16"
   id="svg2"
   version="1.1"
   inkscape:version="0.91 r13725"
   sodipodi:docname="action-unavailable-symbolic.svg">
  <metadata
     id="metadata10">
    <rdf:RDF>
      <cc:Work
         rdf:about="">
        <dc:format>image/svg+xml</dc:format>
        <dc:type
           rdf:resource="http://purl.org/dc/dcmitype/StillImage" />
        <dc:title />
      </cc:Work>
    </rdf:RDF>
  </metadata>
  <sodipodi:namedview
     pagecolor="#ffffff"
     bordercolor="#666666"
     borderopacity="1"
     objecttolerance="10"
     gridtolerance="10"
     guidetolerance="10"
     inkscape:pageopacity="0"
     inkscape:pageshadow="2"
     inkscape:window-width="640"
     inkscape:window-height="480"
     id="namedview8"
     showgrid="false"
     inkscape:zoom="28.151689"
     inkscape:cx="10.140389"
     inkscape:cy="7.807524"
     inkscape:current-layer="svg2" />
  <defs
     id="defs3051">
    <style
       type="text/css"
       id="current-color-scheme">
      .ColorScheme-Text {
        color:#bebebe;
      }
      </style>
  </defs>
  <path
     style="color:#bebebe;fill:currentColor;fill-opacity:1;stroke:none"
     class="ColorScheme-Text"
     d="M 7.9999513,2 C 11.30844,2 14,4.6915624 14,8 14,11.308438 11.308468,14 7.9999813,14 4.6915244,14 2,11.308438 2,8 2,4.6915624 4.6915244,2 7.9999513,2 Z m 0,2.028165 c -0.7278135,0 -1.410394,0.1969574 -1.9976413,0.54009 l 5.429422,5.4293694 C 11.774898,9.4104056 11.971856,8.7278 11.971856,8 c 0,-2.1900976 -1.781819,-3.971835 -3.9719047,-3.971835 z m 0,7.943677 c 0.7278284,0 1.4103867,-0.196956 1.9976417,-0.540089 L 4.5681709,6.0023824 C 4.2250356,6.5896174 4.0280764,7.2722 4.0280764,8 c 0,2.190098 1.781827,3.971842 3.9718749,3.971842 z"
     id="path6"
     inkscape:connector-curvature="0" />
</svg>

<svg xmlns="http://www.w3.org/2000/svg" viewBox="0 0 16 16">
  <path fill="#bebebe" d="M8 2c3.308 0 6 2.692 6 6s-2.692 6-6 6-6-2.692-6-6 2.692-6 6-6zm0 2.028c-.728 0-1.41.197-1.998.54l5.43 5.43c.343-.588.54-1.27.54-1.998A3.976 3.976 0 0 0 8 4.028zm0 7.944c.728 0 1.41-.197 1.998-.54l-5.43-5.43A3.947 3.947 0 0 0 4.028 8 3.976 3.976 0 0 0 8 11.972z"/>
</svg>
